public/assets/img/mission2.svg

<svg width="40" height="41" viewBox="0 0 40 41" fill="none" xmlns="http://www.w3.org/2000/svg">
<path d="M39.2626 16.2344L35.1334 15.7645C34.8367 14.7671 34.446 13.8016 33.9668 12.8817L36.5618 9.55726C36.8266 9.21749 36.8001 8.72797 36.5001 8.42039L31.7851 3.59263C31.4851 3.28521 31.0075 3.25798 30.676 3.52945L27.4326 6.18845C26.5351 5.69725 25.5932 5.2967 24.62 4.99264L24.1617 0.760263C24.115 0.32744 23.7582 0 23.3334 0H16.6667C16.242 0 15.8851 0.32744 15.8384 0.760183L15.38 4.98832C14.4069 5.29245 13.4649 5.69292 12.5675 6.18412L9.32416 3.52424C8.99267 3.25278 8.51509 3.28001 8.21502 3.58743L3.50001 8.42039C3.20032 8.72821 3.17415 9.21773 3.43915 9.55726L6.03751 12.8817C5.55829 13.8016 5.16751 14.7671 4.87087 15.7645L0.74172 16.2344C0.319454 16.2822 0 16.648 0 17.0833V23.9167C0 24.352 0.319454 24.7178 0.741642 24.7657L4.86665 25.2355C5.16337 26.233 5.55407 27.1985 6.03329 28.1184L3.43829 31.4428C3.17344 31.7826 3.20001 32.2721 3.49993 32.5797L8.21494 37.4126C8.51635 37.7185 8.99385 37.7435 9.32408 37.4706L12.5674 34.8116C13.4649 35.3028 14.4068 35.7034 15.38 36.0074L15.8383 40.2398C15.885 40.6726 16.2418 41.0001 16.6667 41H23.3333C23.7567 41.0002 24.1129 40.6751 24.1617 40.2441L24.62 36.0117C25.5932 35.7075 26.5351 35.3071 27.4326 34.8159L30.6759 37.4758C31.0074 37.7472 31.485 37.72 31.7851 37.4126L36.4951 32.5797C36.795 32.2721 36.8216 31.7826 36.5567 31.4428L33.9626 28.1184C34.4418 27.1985 34.8326 26.233 35.1292 25.2355L39.2584 24.7657C39.6805 24.7178 40.0001 24.3521 40 23.9167V17.0833C40.0003 16.6494 39.6831 16.2842 39.2626 16.2344ZM38.3336 23.1522H38.3334L34.3943 23.6016C34.0526 23.6405 33.7693 23.8905 33.6809 24.231C33.36 25.4727 32.8787 26.6648 32.2501 27.7759C32.0773 28.0808 32.1051 28.4632 32.3201 28.7385L34.7976 31.9126L31.1384 35.6632L28.0418 33.1237C27.7732 32.9034 27.4001 32.8749 27.1026 33.052C26.0186 33.6964 24.8556 34.1896 23.6443 34.5186C23.312 34.6091 23.0681 34.8996 23.0301 35.2498L22.5918 39.2918H17.4168L16.9743 35.2498C16.9363 34.8996 16.6924 34.6092 16.3601 34.5186C15.1488 34.1897 13.9857 33.6964 12.9017 33.052C12.6042 32.8749 12.2312 32.9034 11.9626 33.1237L8.86595 35.6632L5.20681 31.9126L7.68431 28.7427C7.89923 28.4674 7.92705 28.0851 7.75431 27.7801C7.12564 26.669 6.64447 25.4769 6.32345 24.2353C6.23517 23.8947 5.95181 23.6447 5.61009 23.6058L1.66672 23.1565V17.8521L5.61009 17.3985C5.95181 17.3596 6.23509 17.1096 6.32345 16.769C6.64439 15.5274 7.12564 14.3353 7.75431 13.2242C7.92705 12.9193 7.89923 12.5369 7.68431 12.2616L5.20681 9.08752L8.86595 5.3369L11.9668 7.87634C12.2354 8.09663 12.6085 8.12514 12.906 7.94809C13.9899 7.3037 15.153 6.8105 16.3643 6.48146C16.6966 6.39097 16.9405 6.10052 16.9785 5.75026L17.4168 1.70831H22.5877L23.0261 5.75026C23.064 6.10052 23.3079 6.39089 23.6402 6.48146C24.8515 6.81042 26.0146 7.3037 27.0986 7.94809C27.3961 8.12514 27.7691 8.09663 28.0377 7.87634L31.1344 5.3369L34.7935 9.09185L32.316 12.2659C32.1011 12.5412 32.0733 12.9236 32.246 13.2285C32.8747 14.3396 33.3558 15.5317 33.6769 16.7734C33.7651 17.1139 34.0485 17.3639 34.3902 17.4029L38.3336 17.8522V23.1522Z" fill="white"/>
<path d="M30.1793 14.661C27.033 8.89742 19.9243 6.83933 14.3014 10.0642C8.67838 13.289 6.67048 20.5756 9.81674 26.3391C9.854 26.4073 9.90018 26.4699 9.95408 26.5252C10.2792 26.8591 10.8069 26.8595 11.1326 26.5262L16.5768 20.9459L18.5 23.575C18.5237 23.6073 18.5495 23.6379 18.5774 23.6664C18.9029 24 19.4304 24 19.7559 23.6664L25 18.2912V21.3542H26.6667V16.2292H26.6665C26.6665 15.7576 26.2936 15.3752 25.8334 15.375H20.8334V17.0833H23.8218L19.2568 21.7625L17.3334 19.1333C17.1889 18.9344 16.9671 18.8097 16.7259 18.7916C16.4849 18.7767 16.2491 18.8677 16.0775 19.0419L10.7792 24.4719C9.3465 20.9769 9.91682 16.9563 12.2613 14.0243C15.7553 9.65432 22.044 9.01505 26.3075 12.5966C30.5708 16.178 31.1945 22.6239 27.7004 26.9939C27.3783 27.3966 27.0325 27.7675 26.6668 28.1064V23.0625H25V29.3542C24.466 29.6725 23.9079 29.9369 23.3334 30.1463V24.7709H21.6668V30.5925C21.1164 30.6889 20.5587 30.7382 20.0001 30.7396V27.3334H18.3335V30.6008C17.7702 30.5048 17.2125 30.3584 16.6668 30.1616V25.625H15V29.3754C14.5342 29.0997 14.0838 28.7825 13.6542 28.4216L12.595 29.7413C14.6828 31.497 17.2996 32.4571 20 32.4585C21.994 32.4581 23.9546 31.9339 25.6947 30.9359C31.3176 27.7111 33.3255 20.4245 30.1793 14.661Z" fill="white"/>
</svg>

<svg width="40" height="41" fill="none" xmlns="http://www.w3.org/2000/svg"><path d="m39.263 16.234-4.13-.47a16.299 16.299 0 0 0-1.166-2.882l2.595-3.325A.87.87 0 0 0 36.5 8.42l-4.715-4.827a.818.818 0 0 0-1.109-.064l-3.243 2.66a15.464 15.464 0 0 0-2.813-1.196L24.162.76a.841.841 0 0 0-.829-.76h-6.666a.841.841 0 0 0-.829.76l-.458 4.228c-.973.304-1.915.705-2.813 1.196l-3.243-2.66a.818.818 0 0 0-1.109.063L3.5 8.42a.87.87 0 0 0-.06 1.137l2.598 3.325c-.48.92-.87 1.885-1.167 2.883l-4.13.47a.847.847 0 0 0-.741.848v6.834c0 .435.32.8.742.849l4.125.47c.296.997.687 1.962 1.166 2.882l-2.595 3.325A.87.87 0 0 0 3.5 32.58l4.715 4.833a.818.818 0 0 0 1.11.058l3.242-2.66c.898.492 1.84.892 2.813 1.196l.458 4.233c.047.433.404.76.829.76h6.666c.424 0 .78-.325.829-.756l.458-4.232a15.474 15.474 0 0 0 2.813-1.196l3.243 2.66a.818.818 0 0 0 1.11-.063l4.71-4.833a.87.87 0 0 0 .06-1.137l-2.593-3.325c.479-.92.87-1.885 1.166-2.883l4.13-.47a.847.847 0 0 0 .741-.848v-6.834c0-.434-.317-.799-.737-.849Zm-.93 6.918-3.939.45a.84.84 0 0 0-.713.629 14.638 14.638 0 0 1-1.43 3.545.871.871 0 0 0 .07.962l2.477 3.175-3.66 3.75-3.096-2.54a.817.817 0 0 0-.94-.071 13.895 13.895 0 0 1-3.458 1.467.848.848 0 0 0-.614.73l-.438 4.043h-5.175l-.443-4.042a.848.848 0 0 0-.614-.731 13.892 13.892 0 0 1-3.458-1.467.817.817 0 0 0-.94.072l-3.096 2.54-3.66-3.751 2.478-3.17a.872.872 0 0 0 .07-.963 14.64 14.64 0 0 1-1.43-3.545.84.84 0 0 0-.714-.63l-3.943-.448v-5.305l3.943-.454a.84.84 0 0 0 .713-.629c.321-1.242.803-2.434 1.431-3.545a.872.872 0 0 0-.07-.962L5.207 9.088l3.659-3.751 3.1 2.54c.27.22.643.248.94.071a13.895 13.895 0 0 1 3.458-1.467.848.848 0 0 0 .614-.73l.439-4.043h5.17l.44 4.042c.037.35.28.64.613.731 1.212.33 2.375.823 3.459 1.467.297.177.67.149.939-.072l3.096-2.54 3.66 3.756-2.478 3.174a.872.872 0 0 0-.07.963 14.642 14.642 0 0 1 1.43 3.544.84.84 0 0 0 .714.63l3.944.45v5.3Z" fill="#fff"/><path d="M30.18 14.661C27.032 8.897 19.923 6.839 14.3 10.064 8.678 13.29 6.671 20.576 9.817 26.34a.819.819 0 0 0 1.316.187l5.444-5.58 1.923 2.629a.819.819 0 0 0 1.256.091L25 18.291v3.063h1.667V16.23a.844.844 0 0 0-.834-.854h-5v1.708h2.989l-4.565 4.68-1.924-2.63a.828.828 0 0 0-.607-.341.837.837 0 0 0-.648.25l-5.299 5.43c-1.432-3.495-.862-7.516 1.482-10.448 3.494-4.37 9.783-5.009 14.047-1.427 4.263 3.581 4.887 10.027 1.392 14.397-.322.403-.668.773-1.033 1.112v-5.044H25v6.292a9.828 9.828 0 0 1-1.667.792v-5.375h-1.666v5.822A9.804 9.804 0 0 1 20 30.74v-3.407h-1.666v3.268a9.731 9.731 0 0 1-1.667-.44v-4.536H15v3.75a10.044 10.044 0 0 1-1.346-.953l-1.059 1.32A11.51 11.51 0 0 0 20 32.457c1.994 0 3.955-.524 5.695-1.522 5.623-3.225 7.63-10.512 4.484-16.275Z" fill="#fff"/></svg>
